images/logo_place_footer.svg

<svg width="184" height="36" viewBox="0 0 184 36" fill="none" xmlns="http://www.w3.org/2000/svg">
<path fill-rule="evenodd" clip-rule="evenodd" d="M9.43843 4.78054H8.03119C5.90308 4.78054 3.84401 6.29047 3.84401 10.6693C3.84401 14.9007 5.73251 16.2634 8.03119 16.2634H9.43843V4.78054ZM7.24229 18.6191L3.05409 28.7024H0L4.59941 17.9194C2.43677 16.7409 0.995015 14.6073 0.995015 10.6693C0.995015 5.14881 4.25623 2.38798 8.13476 2.38798H12.0823V28.7024H9.43843V18.6191H7.24229ZM59.7314 19.3728C59.7314 13.4448 61.7123 9.6565 65.5451 9.6565C67.0072 9.6565 67.8499 10.107 68.5647 10.6324L68.2073 13.4068C67.526 12.7316 66.5513 12.0945 65.5126 12.0945C63.6932 12.0945 62.3946 14.4576 62.3946 19.2218C62.3946 23.948 63.3693 26.6487 65.4151 26.6487C66.6488 26.6487 67.591 26.0865 68.1748 25.4862L68.7596 27.6627C67.8834 28.5257 66.8437 29.0867 65.3502 29.0867C61.8422 29.0867 59.7314 25.8238 59.7314 19.3728ZM52.3266 19.4096V28.8252H49.7914V9.9192H52.3256V18.6596L56.2549 9.9192H58.8206L54.7604 18.8094L59.4055 28.8252H56.6438L52.3256 19.4096H52.3266ZM40.4068 17.6468H44.596C44.596 14.4207 44.1411 12.0577 42.6801 12.0577C41.1205 12.0577 40.5682 14.271 40.4057 17.6468H40.4068ZM43.1989 29.0879C39.8219 29.0879 37.7436 25.9735 37.7436 20.1597C37.7436 14.0832 39.2056 9.6565 42.6801 9.6565C45.4082 9.6565 47.1942 12.0196 47.1942 18.4337V20.0468H40.3743C40.3743 24.3237 41.4129 26.575 43.4273 26.575C44.8559 26.575 45.9931 25.8238 46.6429 25.2984L47.2267 27.5497C46.188 28.4876 44.8234 29.0879 43.1999 29.0879H43.1989ZM32.4162 12.2823H29.5915V12.6199C29.5915 16.596 29.4291 22.4111 28.0645 26.4241H32.4172V12.2823H32.4162ZM36.2165 32.5386H33.9432V28.8252H26.9273V32.5386H24.6551V26.4253H25.6612C27.1558 22.4111 27.3182 16.5592 27.3182 11.5322V9.9192H34.9179V26.4241H36.2175V32.5386H36.2165ZM23.193 9.9192V28.824H20.6923V20.3475H16.9254V28.8252H14.3912V9.9192H16.9254V17.9476H20.6923V9.9192H23.193ZM86.9014 1.9706H79.8378V28.8927H78.1798V0.333008H88.5604V28.8927H86.9014V1.97183V1.9706ZM96.95 27.7744C98.012 27.7744 98.8629 27.0096 99.5046 25.4788C100.145 23.9468 100.466 21.5837 100.466 18.3883C100.466 15.7244 100.19 13.6621 99.6366 12.1964C99.0842 10.7319 98.3217 9.999 97.348 9.999C96.9724 9.999 96.6129 10.1132 96.2708 10.339C95.9145 10.5781 95.5903 10.881 95.3093 11.2376C95.0108 11.6108 94.7397 12.0429 94.497 12.5364C94.254 13.028 94.0432 13.5419 93.8665 14.0733V25.3376C94.1975 26.1638 94.6077 26.7764 95.093 27.1753C95.5804 27.5743 96.1997 27.7744 96.951 27.7744H96.95ZM96.8505 29.2524C96.2452 29.2624 95.6472 29.0908 95.1103 28.7528C94.6224 28.4523 94.1972 28.0221 93.8665 27.4945V35.1239H92.308V8.76159H93.6675L93.7995 12.0761C94.1751 11.1185 94.6727 10.2592 95.292 9.5006C95.9113 8.74072 96.685 8.3614 97.614 8.3614C98.2994 8.3614 98.9177 8.60201 99.4711 9.08076C100.023 9.55952 100.488 10.2322 100.864 11.0977C101.24 11.9631 101.527 13.0017 101.726 14.2133C101.925 15.4249 102.025 16.763 102.025 18.2275C102.025 21.9299 101.549 24.6919 100.598 26.5161C99.6477 28.3403 98.3989 29.2536 96.8515 29.2536L96.8505 29.2524ZM108.293 27.7744C109.066 27.7744 109.725 27.3889 110.266 26.6168C110.807 25.8434 111.233 24.9117 111.542 23.8204V18.268H109.751C108.359 18.268 107.331 18.667 106.668 19.4661C106.005 20.264 105.673 21.5432 105.673 23.3011C105.673 24.7386 105.91 25.8434 106.385 26.6156C106.861 27.3889 107.496 27.7744 108.292 27.7744H108.293ZM112.007 28.8927C111.926 28.5561 111.854 28.2163 111.791 27.8738C111.697 27.3142 111.636 26.7473 111.608 26.1773C111.211 27.1348 110.714 27.8947 110.116 28.4532C109.52 29.013 108.801 29.2929 107.961 29.2929C106.834 29.2929 105.915 28.7798 105.209 27.7548C104.501 26.7297 104.147 25.2984 104.147 23.4607C104.147 21.3038 104.623 19.6723 105.573 18.5675C106.523 17.4627 107.905 16.9103 109.719 16.9103H111.542V14.3937C111.542 12.8482 111.311 11.7299 110.846 11.0375C110.382 10.3452 109.685 9.999 108.757 9.999C108.05 9.999 107.387 10.193 106.767 10.5784C106.148 10.9651 105.64 11.504 105.241 12.1964L104.811 10.3992C105.142 9.86642 105.645 9.39257 106.319 8.98133C106.994 8.56763 107.806 8.3614 108.756 8.3614C110.149 8.3614 111.216 8.83402 111.957 9.77926C112.699 10.7245 113.068 12.1964 113.068 14.1936V25.1781C113.068 25.8704 113.101 26.5701 113.168 27.2748C113.234 27.9806 113.322 28.5208 113.433 28.8927H112.007ZM118.209 28.8927H116.649V8.76036H118.209V18.2275L123.813 8.76159H125.338L119.833 18.1084L125.736 28.8927H124.012L118.209 18.4681V28.8927ZM131.706 10.3194V28.8927H130.147V10.3194H126.267V8.76036H135.554V10.3194H131.705H131.706ZM145.734 14.8737C145.734 14.3397 145.745 13.8548 145.768 13.4141C145.79 12.9759 145.823 12.5425 145.867 12.1166H145.768C145.66 12.5597 145.527 12.9933 145.37 13.4141C145.207 13.8486 145.041 14.2816 144.872 14.7129L139.433 28.8927H138.107V8.76036H139.566V22.7425C139.57 23.6901 139.526 24.6371 139.434 25.5782H139.533C139.643 25.124 139.776 24.6784 139.931 24.2402C140.086 23.8007 140.251 23.3539 140.428 22.9021L145.867 8.76036H147.227V28.8927H145.734V14.8737ZM152.533 28.8927H150.974V8.76036H152.533V18.2275L158.137 8.76159H159.663L154.158 18.1084L160.061 28.8927H158.336L152.533 18.4681V28.8927ZM162.316 35.2835C162.14 35.2835 161.979 35.2774 161.835 35.2639C161.707 35.253 161.58 35.2329 161.454 35.2037L161.288 33.4471C161.42 33.4998 161.57 33.5404 161.736 33.5661C161.902 33.5931 162.095 33.6066 162.316 33.6066C162.891 33.6066 163.377 33.2936 163.775 32.6675C164.173 32.0415 164.494 31.1699 164.737 30.0516L164.869 29.4525L160.724 8.76159H162.283L164.936 21.9029C165.091 22.6762 165.223 23.4337 165.334 24.18C165.446 24.9252 165.544 25.6838 165.632 26.456H165.732C165.843 25.658 165.964 24.8847 166.097 24.1395C166.229 23.3944 166.374 22.648 166.528 21.9029L169.115 8.76159H170.508L166.228 29.93C166.096 30.6224 165.924 31.289 165.715 31.9273C165.52 32.5334 165.257 33.1046 164.935 33.6251C164.637 34.1052 164.265 34.5119 163.84 34.8232C163.421 35.1301 162.912 35.2823 162.315 35.2823L162.316 35.2835ZM174.886 14.6724C174.753 14.1409 174.653 13.6412 174.587 13.1748C174.521 12.7083 174.432 12.2234 174.322 11.7176H174.19C174.233 12.2492 174.272 12.7893 174.305 13.3343C174.338 13.8806 174.355 14.5128 174.355 15.2322V28.8927H173.028V8.76036H174.853L177.771 21.0644C177.947 21.7826 178.069 22.3951 178.136 22.9009C178.202 23.4079 178.257 23.9272 178.302 24.4599H178.434C178.478 23.9272 178.539 23.4079 178.616 22.9009C178.694 22.3951 178.82 21.7838 178.997 21.0644L181.982 8.76159H183.773V28.894H182.281V15.231C182.275 14.044 182.319 12.8575 182.413 11.6759H182.281C182.192 12.2357 182.109 12.7549 182.032 13.2337C181.955 13.7124 181.86 14.1924 181.751 14.6712L178.965 26.4953H177.671L174.885 14.6712L174.886 14.6724Z" fill="#4F4F4F"/>
</svg>

<svg width="184" height="36" fill="none" xmlns="http://www.w3.org/2000/svg"><path fill-rule="evenodd" clip-rule="evenodd" d="M9.438 4.78H8.031c-2.128 0-4.187 1.51-4.187 5.89 0 4.23 1.889 5.593 4.187 5.593h1.407V4.781zM7.242 18.62L3.054 28.701H0L4.6 17.92C2.436 16.741.994 14.607.994 10.67c0-5.52 3.261-8.281 7.14-8.281h3.947v26.314H9.438V18.62H7.242zm52.49.753c0-5.928 1.98-9.717 5.813-9.717 1.462 0 2.305.451 3.02.976l-.358 2.775c-.681-.675-1.656-1.313-2.694-1.313-1.82 0-3.118 2.364-3.118 7.128 0 4.726.974 7.427 3.02 7.427a3.833 3.833 0 002.76-1.163l.585 2.177c-.877.863-1.916 1.424-3.41 1.424-3.508 0-5.619-3.263-5.619-9.714zm-7.405.037v9.415H49.79V9.92h2.535v8.74l3.929-8.74h2.566l-4.06 8.89 4.645 10.016h-2.762l-4.318-9.415zm-11.92-1.763h4.189c0-3.226-.455-5.59-1.916-5.59-1.56 0-2.112 2.214-2.274 5.59zm2.792 11.44c-3.377 0-5.455-3.113-5.455-8.927 0-6.077 1.462-10.504 4.936-10.504 2.728 0 4.514 2.364 4.514 8.778v1.613h-6.82c0 4.277 1.039 6.528 3.053 6.528 1.429 0 2.566-.751 3.216-1.277l.584 2.252a5.906 5.906 0 01-4.027 1.538h-.001zM32.416 12.283h-2.824v.338c0 3.976-.163 9.791-1.527 13.804h4.352V12.282zm3.8 20.257h-2.273v-3.714h-7.016v3.714h-2.272v-6.114h1.006c1.495-4.014 1.657-9.866 1.657-14.893V9.92h7.6v16.505h1.3v6.115h-.002zM23.194 9.919v18.905h-2.5v-8.477h-3.768v8.478h-2.534V9.92h2.534v8.029h3.767v-8.03h2.501zm63.708-7.948h-7.063v26.922H78.18V.333h10.38v28.56h-1.659V1.97zM96.95 27.774c1.062 0 1.913-.764 2.555-2.295.64-1.532.961-3.895.961-7.09 0-2.665-.276-4.727-.83-6.193C99.085 10.732 98.323 10 97.349 10c-.376 0-.735.114-1.077.34a4.23 4.23 0 00-.962.899c-.298.373-.57.805-.812 1.298a12.047 12.047 0 00-.63 1.537v11.265c.33.826.74 1.438 1.226 1.837.487.4 1.107.6 1.858.6h-.001zm-.1 1.478a3.158 3.158 0 01-1.74-.5c-.488-.3-.913-.73-1.243-1.258v7.63h-1.559V8.762h1.36l.131 3.314a9.565 9.565 0 011.493-2.575c.62-.76 1.393-1.14 2.322-1.14.685 0 1.304.241 1.857.72.552.479 1.017 1.151 1.393 2.017.376.865.663 1.904.862 3.115.199 1.212.299 2.55.299 4.014 0 3.703-.476 6.465-1.427 8.29-.95 1.823-2.2 2.737-3.746 2.737l-.002-.002zm11.443-1.478c.773 0 1.432-.385 1.973-1.157.541-.774.967-1.705 1.276-2.797v-5.552h-1.791c-1.392 0-2.42.399-3.083 1.198-.663.798-.995 2.077-.995 3.835 0 1.438.237 2.542.712 3.315.476.773 1.111 1.158 1.907 1.158h.001zm3.714 1.119a19.205 19.205 0 01-.216-1.02 14.556 14.556 0 01-.183-1.696c-.397.958-.894 1.718-1.492 2.276-.596.56-1.315.84-2.155.84-1.127 0-2.046-.513-2.752-1.538-.708-1.025-1.062-2.457-1.062-4.294 0-2.157.476-3.789 1.426-4.893.95-1.105 2.332-1.658 4.146-1.658h1.823v-2.516c0-1.546-.231-2.664-.696-3.357-.464-.692-1.161-1.038-2.089-1.038a3.7 3.7 0 00-1.99.58c-.619.386-1.127.925-1.526 1.617l-.43-1.797c.331-.533.834-1.006 1.508-1.418.675-.413 1.487-.62 2.437-.62 1.393 0 2.46.473 3.201 1.418.742.946 1.111 2.417 1.111 4.415v10.984c0 .692.033 1.392.1 2.097.066.706.154 1.246.265 1.618h-1.426zm6.202 0h-1.56V8.76h1.56v9.467l5.604-9.465h1.525l-5.505 9.346 5.903 10.785h-1.724l-5.803-10.425v10.425zm13.497-18.574v18.574h-1.559V10.319h-3.88V8.76h9.287v1.56h-3.849.001zm14.028 4.555c0-.534.011-1.02.034-1.46.022-.438.055-.871.099-1.297h-.099a11.51 11.51 0 01-.398 1.297 95.58 95.58 0 01-.498 1.299l-5.439 14.18h-1.326V8.76h1.459v13.982a27.94 27.94 0 01-.132 2.836h.099c.11-.454.243-.9.398-1.338.155-.44.32-.886.497-1.338l5.439-14.142h1.36v20.133h-1.493v-14.02zm6.799 14.019h-1.559V8.76h1.559v9.467l5.604-9.465h1.526l-5.505 9.346 5.903 10.785h-1.725l-5.803-10.425v10.425zm9.783 6.39c-.176 0-.337-.006-.481-.02a2.7 2.7 0 01-.381-.06l-.166-1.756c.132.053.282.093.448.12.166.026.359.04.58.04.575 0 1.061-.313 1.459-.94.398-.626.719-1.497.962-2.615l.132-.6-4.145-20.69h1.559l2.653 13.14c.155.774.287 1.532.398 2.278.112.745.21 1.504.298 2.276h.1c.111-.798.232-1.571.365-2.316a79.39 79.39 0 01.431-2.237l2.587-13.141h1.393l-4.28 21.168a16.115 16.115 0 01-.513 1.997 7.727 7.727 0 01-.78 1.698c-.298.48-.67.887-1.095 1.198-.419.307-.928.46-1.525.46h.001zm12.57-20.61a14.669 14.669 0 01-.299-1.498 20.162 20.162 0 00-.265-1.457h-.132c.043.531.082 1.071.115 1.616.033.547.05 1.179.05 1.898v13.66h-1.327V8.76h1.825l2.918 12.304c.176.719.298 1.331.365 1.837.066.507.121 1.026.166 1.559h.132a22.97 22.97 0 01.182-1.56c.078-.505.204-1.116.381-1.836l2.985-12.302h1.791v20.132h-1.492V15.231a42.15 42.15 0 01.132-3.555h-.132l-.249 1.558a22.79 22.79 0 01-.281 1.437l-2.786 11.824h-1.294l-2.786-11.824.001.001z" fill="#4F4F4F"/></svg>
